;FLAVOR:Marlin
;TIME:1726
;Filament used: 1.80861m
;Layer height: 0.2
;MINX:77.149
;MINY:58.38
;MINZ:0.1
;MAXX:119.286
;MAXY:93.018
;MAXZ:17.5
;Generated with Cura_SteamEngine 4.6.1
M140 S60
M105
M190 S60
M104 S220
M105
M109 S220
M82 ;absolute extrusion mode
G21 ;metric values
 G90 ;absolute positioning
 M82 ;set extruder to absolute mode
 M107 ;start with the fan off
 G28 X0 Y0 ;move X/Y to min endstops
 G28 Z0 ;move Z to min endstops
 G1 Z15.0 F120 ;move the platform down 15mm
 G92 E0 ;zero the extruded length
 G1 F200 E6 ;extrude 6 mm of feed stock
 G92 E0 ;zero the extruded length again
 G1 F120 
 ;Put printing message on LCD screen
 M117 Printing...
G92 E0
G92 E0
G1 F1500 E-6.5
;LAYER_COUNT:88
;LAYER:0
M107
;MESH:right_clip.stl
G0 F3600 X80.392 Y69.518 Z0.1
;TYPE:WALL-OUTER
G1 F1500 E0
G1 F1800 X79.901 Y68.787 E0.02114
G1 X79.512 Y68.291 E0.03628
G1 X79.095 Y67.82 E0.05138
G1 X78.655 Y67.38 E0.06632
G1 X78.303 Y67.014 E0.07851
G1 X77.989 Y66.607 E0.09086
G1 X77.724 Y66.175 E0.10302
G1 X77.508 Y65.721 E0.11509
G1 X77.338 Y65.24 E0.12734
G1 X77.222 Y64.751 E0.13941
G1 X77.159 Y64.249 E0.15156
G1 X77.149 Y63.741 E0.16376
G1 X77.193 Y63.234 E0.17598
G1 X77.289 Y62.742 E0.18801
G1 X77.437 Y62.26 E0.20012
G1 X77.641 Y61.785 E0.21253
G1 X77.883 Y61.352 E0.22444
G1 X78.18 Y60.934 E0.23675
G1 X78.511 Y60.56 E0.24874
G1 X78.895 Y60.21 E0.26122
G1 X79.292 Y59.917 E0.27306
G1 X79.735 Y59.659 E0.28537
G1 X80.188 Y59.457 E0.29728
G1 X80.676 Y59.298 E0.3096
G1 X81.169 Y59.195 E0.32169
G1 X81.674 Y59.143 E0.33388
G1 X82.181 Y59.146 E0.34606
G1 X82.675 Y59.202 E0.35799
G1 X83.172 Y59.313 E0.37022
G1 X83.652 Y59.475 E0.38238
G1 X84.109 Y59.686 E0.39447
G1 X84.546 Y59.947 E0.40669
G1 X84.945 Y60.247 E0.41868
G1 X85.323 Y60.601 E0.43111
G1 X85.645 Y60.974 E0.44294
G1 X85.934 Y61.391 E0.45512
G1 X86.18 Y61.843 E0.46748
G1 X86.373 Y62.308 E0.47957
G1 X86.515 Y62.791 E0.49165
G1 X86.607 Y63.294 E0.50393
G1 X86.645 Y63.79 E0.51587
G1 X86.629 Y64.299 E0.5281
G1 X86.557 Y64.811 E0.54052
G1 X86.463 Y65.399 E0.55481
G1 X86.401 Y65.998 E0.56927
G1 X86.373 Y66.599 E0.58372
G1 X86.378 Y67.123 E0.5963
G1 X86.43 Y67.858 E0.61399
G1 X86.535 Y68.589 E0.63172
G1 X86.664 Y69.19 E0.64648
G1 X86.845 Y69.84 E0.66268
G1 X87.025 Y70.376 E0.67625
G1 X87.411 Y71.453 E0.70372
G1 X87.915 Y72.804 E0.73834
G1 X88.207 Y73.557 E0.75774
G1 X88.485 Y74.258 E0.77584
G1 X88.972 Y75.451 E0.80678
G1 X89.355 Y76.358 E0.83042
G1 X89.942 Y77.698 E0.86554
G1 X90.418 Y78.744 E0.89313
G1 X91.112 Y80.219 E0.93227
G1 X91.755 Y81.532 E0.96738
G1 X92.214 Y82.434 E0.99167
G1 X92.225 Y82.456 E0.99227
G1 X92.256 Y82.547 E0.99457
G1 X92.258 Y82.618 E0.99628
G1 X92.241 Y82.686 E0.99796
G1 X92.201 Y82.751 E0.99979
G1 X92.148 Y82.799 E1.00151
G1 X92.084 Y82.829 E1.00321
G1 X92.013 Y82.84 E1.00493
G1 X91.923 Y82.827 E1.00712
G1 X91.9 Y82.82 E1.00769
G1 X91.255 Y82.626 E1.02386
G1 X90.907 Y82.481 E1.03292
G1 X90.616 Y82.282 E1.04138
G1 X90.364 Y82.022 E1.05007
G1 X90.166 Y81.706 E1.05903
G1 X89.57 Y80.476 E1.09184
G1 X88.988 Y79.23 E1.12486
G1 X88.42 Y77.97 E1.15805
G1 X87.872 Y76.709 E1.19106
G1 X87.486 Y75.782 E1.21517
G1 X86.994 Y74.567 E1.24664
G1 X86.475 Y73.241 E1.28083
G1 X86.079 Y72.187 E1.30786
G1 X85.862 Y71.593 E1.32305
G1 X85.404 Y70.293 E1.35614
G1 X85.138 Y69.504 E1.37613
G1 X84.889 Y68.745 E1.39531
G1 X84.722 Y68.217 E1.4086
G1 X84.6 Y67.637 E1.42284
G1 X84.55 Y67.071 E1.43648
G1 X84.555 Y66.688 E1.44567
G1 X84.608 Y66.185 E1.45782
G1 X84.724 Y65.657 E1.4708
G1 X85.043 Y64.714 E1.4947
G1 X85.124 Y64.279 E1.50532
G1 X85.146 Y63.836 E1.51597
G1 X85.108 Y63.396 E1.52658
G1 X85.01 Y62.964 E1.53721
G1 X84.855 Y62.549 E1.54785
G1 X84.645 Y62.159 E1.55848
G1 X84.385 Y61.803 E1.56907
G1 X84.078 Y61.483 E1.57971
G1 X83.731 Y61.209 E1.59033
G1 X83.35 Y60.985 E1.60094
G1 X82.943 Y60.815 E1.61153
G1 X82.516 Y60.701 E1.62214
G1 X82.077 Y60.647 E1.63276
G1 X81.635 Y60.652 E1.64337
G1 X81.198 Y60.717 E1.65398
G1 X80.773 Y60.842 E1.66462
G1 X80.37 Y61.023 E1.67523
G1 X79.995 Y61.257 E1.68584
G1 X79.655 Y61.54 E1.69646
G1 X79.356 Y61.866 E1.70708
G1 X79.105 Y62.23 E1.7177
G1 X78.904 Y62.624 E1.72832
G1 X78.759 Y63.042 E1.73894
G1 X78.673 Y63.477 E1.74959
G1 X78.645 Y63.919 E1.76022
G1 X78.678 Y64.36 E1.77084
G1 X78.77 Y64.793 E1.78146
G1 X78.919 Y65.21 E1.7921
G1 X79.124 Y65.602 E1.80272
G1 X79.38 Y65.963 E1.81334
G1 X79.684 Y66.286 E1.82399
G1 X80.322 Y66.794 E1.84357
G1 X80.718 Y67.157 E1.85647
G1 X81.027 Y67.512 E1.86777
G1 X81.285 Y67.874 E1.87845
G1 X81.514 Y68.27 E1.88943
G1 X81.701 Y68.68 E1.90025
G1 X81.887 Y69.225 E1.91407
G1 X82.341 Y70.6 E1.94884
G1 X82.788 Y71.901 E1.98187
G1 X83.035 Y72.594 E1.99953
G1 X83.671 Y74.311 E2.0435
G1 X84.35 Y76.01 E2.08742
G1 X84.896 Y77.356 E2.1223
G1 X85.462 Y78.693 E2.15716
G1 X85.757 Y79.372 E2.17493
G1 X86.646 Y81.317 E2.22628
G1 X87.883 Y83.88 E2.29461
G1 X88.688 Y85.42 E2.33633
G1 X89.714 Y87.289 E2.38752
G1 X90.007 Y87.843 E2.40257
G1 X90.749 Y89.138 E2.4384
G1 X91.684 Y90.703 E2.48217
G1 X91.837 Y91.015 E2.49052
G1 X91.923 Y91.331 E2.49838
G1 X91.948 Y91.654 E2.50616
G1 X91.91 Y92.002 E2.51456
G1 X91.75 Y92.776 E2.53354
G1 X91.745 Y92.802 E2.53417
G1 X91.713 Y92.889 E2.5364
G1 X91.667 Y92.95 E2.53823
G1 X91.609 Y92.992 E2.53995
G1 X91.542 Y93.015 E2.54165
G1 X91.467 Y93.018 E2.54346
G1 X91.398 Y92.999 E2.54517
G1 X91.337 Y92.96 E2.54691
G1 X91.274 Y92.888 E2.54921
G1 X91.26 Y92.866 E2.54984
G1 X90.352 Y91.4 E2.59124
G1 X89.44 Y89.873 E2.63394
G1 X87.704 Y86.833 E2.71799
G1 X86.902 Y85.291 E2.75973
G1 X86.12 Y83.723 E2.80179
G1 X85.367 Y82.146 E2.84375
G1 X84.64 Y80.556 E2.88573
G1 X84.396 Y80.007 E2.90015
G1 X83.702 Y78.408 E2.94201
G1 X83.067 Y76.875 E2.98185
G1 X82.676 Y75.897 E3.00713
G1 X82.122 Y74.458 E3.04416
G1 X81.598 Y73.029 E3.0807
G1 X81.153 Y71.767 E3.11283
G1 X80.522 Y69.879 E3.16062
G1 X80.392 Y69.518 E3.16984
G0 F3600 X80.281 Y69.352
G0 X80.833 Y69.295
;TYPE:SKIN
G1 F1800 X80.297 Y68.499 E3.19078
G1 X79.888 Y67.977 E3.20526
G1 X79.452 Y67.485 E3.2196
G1 X79.002 Y67.033 E3.23353
G1 X78.677 Y66.696 E3.24375
G1 X78.391 Y66.327 E3.25394
G1 X78.156 Y65.941 E3.2638
G1 X77.96 Y65.53 E3.27374
G1 X77.809 Y65.104 E3.2836
G1 X77.704 Y64.66 E3.29356
G1 X77.649 Y64.216 E3.30333
G1 X77.639 Y63.756 E3.31337
G1 X77.678 Y63.304 E3.32327
G1 X77.766 Y62.857 E3.33322
G1 X77.895 Y62.437 E3.34281
G1 X78.083 Y61.999 E3.35321
G1 X78.3 Y61.61 E3.36293
G1 X78.562 Y61.243 E3.37277
G1 X78.858 Y60.907 E3.38255
G1 X79.213 Y60.585 E3.39301
G1 X79.555 Y60.331 E3.40231
G1 X79.966 Y60.092 E3.41269
G1 X80.361 Y59.917 E3.42212
G1 X80.802 Y59.772 E3.43225
G1 X81.241 Y59.681 E3.44203
G1 X81.703 Y59.633 E3.45217
G1 X82.16 Y59.636 E3.46215
G1 X82.588 Y59.684 E3.47155
G1 X83.042 Y59.787 E3.48171
G1 X83.464 Y59.928 E3.49142
G1 X83.882 Y60.121 E3.50147
G1 X84.273 Y60.355 E3.51142
G1 X84.633 Y60.625 E3.52124
G1 X84.967 Y60.938 E3.53123
G1 X85.261 Y61.279 E3.54106
G1 X85.508 Y61.634 E3.5505
G1 X85.739 Y62.059 E3.56105
G1 X85.911 Y62.474 E3.57086
G1 X86.038 Y62.906 E3.58069
G1 X86.121 Y63.362 E3.5908
G1 X86.155 Y63.79 E3.60018
G1 X86.14 Y64.253 E3.61029
G1 X86.073 Y64.734 E3.62089
G1 X85.977 Y65.335 E3.63417
G1 X85.913 Y65.961 E3.64791
G1 X85.883 Y66.589 E3.66163
G1 X85.888 Y67.143 E3.67372
G1 X85.942 Y67.911 E3.69053
G1 X86.053 Y68.675 E3.70738
G1 X86.188 Y69.307 E3.72148
G1 X86.377 Y69.983 E3.7368
G1 X86.562 Y70.537 E3.74955
G1 X86.951 Y71.621 E3.77469
G1 X87.457 Y72.978 E3.8063
G1 X87.751 Y73.736 E3.82405
G1 X88.03 Y74.441 E3.8406
G1 X88.519 Y75.639 E3.86884
G1 X88.905 Y76.552 E3.89048
G1 X89.495 Y77.898 E3.92255
G1 X89.973 Y78.95 E3.94777
G1 X90.671 Y80.431 E3.98351
G1 X91.316 Y81.751 E4.01558
G1 X91.546 Y82.202 E4.02663
G1 X91.427 Y82.166 E4.02934
G1 X91.14 Y82.047 E4.03612
G1 X90.935 Y81.906 E4.04155
G1 X90.752 Y81.718 E4.04728
G1 X90.595 Y81.468 E4.05372
G1 X90.013 Y80.265 E4.08289
G1 X89.434 Y79.025 E4.11276
G1 X88.867 Y77.768 E4.14286
G1 X88.321 Y76.513 E4.17273
G1 X87.939 Y75.594 E4.19446
G1 X87.448 Y74.383 E4.22298
G1 X86.931 Y73.062 E4.25394
G1 X86.538 Y72.015 E4.27835
G1 X86.322 Y71.425 E4.29207
G1 X85.866 Y70.13 E4.32203
G1 X85.602 Y69.347 E4.34007
G1 X85.199 Y68.101 E4.36865
G1 X85.084 Y67.56 E4.38073
G1 X85.04 Y67.054 E4.39181
G1 X85.045 Y66.723 E4.39904
G1 X85.094 Y66.254 E4.40933
G1 X85.197 Y65.785 E4.41981
G1 X85.519 Y64.838 E4.44164
G1 X85.612 Y64.336 E4.45279
G1 X85.638 Y63.827 E4.46391
G1 X85.594 Y63.32 E4.47502
G1 X85.48 Y62.823 E4.48615
G1 X85.302 Y62.347 E4.49724
G1 X85.061 Y61.897 E4.50838
G1 X84.761 Y61.487 E4.51947
G1 X84.408 Y61.119 E4.5306
G1 X84.008 Y60.803 E4.54173
G1 X83.57 Y60.546 E4.55281
G1 X83.102 Y60.35 E4.56389
G1 X82.61 Y60.219 E4.575
G1 X82.104 Y60.157 E4.58613
G1 X81.596 Y60.162 E4.59722
G1 X81.092 Y60.237 E4.60834
G1 X80.603 Y60.381 E4.61946
G1 X80.139 Y60.59 E4.63057
G1 X79.707 Y60.859 E4.64168
G1 X79.316 Y61.185 E4.65279
G1 X78.972 Y61.56 E4.6639
G1 X78.683 Y61.979 E4.67501
G1 X78.452 Y62.432 E4.68611
G1 X78.285 Y62.913 E4.69722
G1 X78.187 Y63.414 E4.70836
G1 X78.153 Y63.921 E4.71946
G1 X78.192 Y64.429 E4.73058
G1 X78.298 Y64.927 E4.74169
G1 X78.469 Y65.406 E4.75279
G1 X78.705 Y65.859 E4.76394
G1 X79 Y66.274 E4.77505
G1 X79.351 Y66.647 E4.78623
G1 X80.016 Y67.178 E4.80481
G1 X80.362 Y67.495 E4.81505
G1 X80.649 Y67.825 E4.8246
G1 X80.875 Y68.143 E4.83311
G1 X81.079 Y68.496 E4.84201
G1 X81.24 Y68.848 E4.85046
G1 X81.461 Y69.495 E4.86538
G1 X81.877 Y70.757 E4.89439
G1 X82.325 Y72.063 E4.92452
G1 X82.574 Y72.761 E4.9407
G1 X83.214 Y74.487 E4.98088
G1 X83.895 Y76.193 E5.02097
G1 X84.443 Y77.544 E5.05279
G1 X85.011 Y78.887 E5.08462
G1 X85.31 Y79.572 E5.10093
G1 X86.203 Y81.525 E5.14781
G1 X87.446 Y84.1 E5.21022
G1 X88.256 Y85.651 E5.24841
G1 X89.281 Y87.518 E5.2949
G1 X89.578 Y88.08 E5.30877
G1 X90.326 Y89.385 E5.3416
G1 X91.259 Y90.948 E5.38133
G1 X91.375 Y91.184 E5.38707
G1 X91.439 Y91.419 E5.39239
G1 X91.456 Y91.639 E5.39721
G1 X91.424 Y91.933 E5.40366
G1 X91.383 Y92.132 E5.4081
G1 X90.769 Y91.142 E5.43352
G1 X89.861 Y89.622 E5.47217
G1 X88.134 Y86.598 E5.54818
G1 X87.339 Y85.068 E5.58581
G1 X86.559 Y83.504 E5.62396
G1 X85.79 Y81.894 E5.66291
G1 X85.085 Y80.352 E5.69991
G1 X84.844 Y79.809 E5.71288
G1 X84.151 Y78.212 E5.75088
G1 X83.52 Y76.687 E5.7869
G1 X83.131 Y75.715 E5.80975
G1 X82.581 Y74.286 E5.84318
G1 X82.058 Y72.86 E5.87633
G1 X81.616 Y71.608 E5.90531
G1 X80.985 Y69.718 E5.9488
G1 X80.833 Y69.295 E5.95861
G0 F3600 X78.883 Y65.226
G0 X78.634 Y63.472
G0 X79.325 Y61.842
G0 X80.76 Y60.805
G0 X82.523 Y60.662
G0 X85.41 Y62.076
G1 F1800 X85.567 Y62.233 E5.96346
G0 F3600 X85.787 Y63.16
G1 F1800 X85.869 Y63.242 E5.96599
G0 F3600 X85.651 Y65.145
G1 F1800 X85.761 Y65.255 E5.96938
G0 F3600 X85.471 Y65.672
G1 F1800 X85.694 Y65.895 E5.97627
G0 F3600 X85.326 Y66.234
G1 F1800 X85.658 Y66.567 E5.98653
G0 F3600 X85.266 Y66.881
G1 F1800 X85.672 Y67.287 E5.99906
G0 F3600 X85.333 Y67.655
G1 F1800 X85.735 Y68.058 E6.01149
G0 F3600 X85.608 Y68.637
G1 F1800 X85.869 Y68.899 E6.01956
G0 F3600 X85.955 Y69.691
G1 F1800 X86.103 Y69.84 E6.02414
G0 F3600 X86.331 Y70.775
G1 F1800 X86.451 Y70.895 E6.02785
G0 F3600 X86.727 Y71.878
G1 F1800 X86.853 Y72.003 E6.03172
G0 F3600 X87.15 Y73.008
G1 F1800 X87.273 Y73.131 E6.03552
G0 F3600 X87.606 Y74.171
G1 F1800 X87.728 Y74.293 E6.03928
G0 F3600 X88.085 Y75.357
G1 F1800 X88.21 Y75.482 E6.04314
G0 F3600 X88.589 Y76.568
G1 F1800 X88.725 Y76.704 E6.04734
G0 F3600 X89.138 Y77.824
G1 F1800 X89.278 Y77.964 E6.05166
G0 F3600 X89.724 Y79.118
G1 F1800 X89.873 Y79.266 E6.05625
G0 F3600 X90.353 Y80.453
G1 F1800 X90.506 Y80.606 E6.06097
G0 F3600 X85.081 Y64.724
G0 X85.048 Y62.953
G0 X84.104 Y61.454
G0 X82.523 Y60.662
G0 X80.76 Y60.805
G0 X79.325 Y61.842
G0 X78.634 Y63.472
G0 X78.836 Y65.061
G0 X86.126 Y81.883
G1 F1800 X85.951 Y81.709 E6.06636
G0 F3600 X85.518 Y80.568
G1 F1800 X85.355 Y80.405 E6.07139
G0 F3600 X84.936 Y79.279
G1 F1800 X84.799 Y79.142 E6.07562
G0 F3600 X84.409 Y78.045
G1 F1800 X84.264 Y77.9 E6.08009
G0 F3600 X83.915 Y76.844
G1 F1800 X83.765 Y76.694 E6.08472
G0 F3600 X83.439 Y75.661
G1 F1800 X83.295 Y75.516 E6.08918
G0 F3600 X82.975 Y74.49
G1 F1800 X82.853 Y74.367 E6.09296
G0 F3600 X82.558 Y73.366
G1 F1800 X82.439 Y73.247 E6.09664
G0 F3600 X82.153 Y72.254
G1 F1800 X82.042 Y72.143 E6.10006
G0 F3600 X81.782 Y71.175
G1 F1800 X81.67 Y71.063 E6.10352
G0 F3600 X81.428 Y70.114
G1 F1800 X81.315 Y70.002 E6.10699
G0 F3600 X81.069 Y69.048
G1 F1800 X80.664 Y68.643 E6.11949
G0 F3600 X78.302 Y65.574
G1 F1800 X78.164 Y65.437 E6.12374
G0 F3600 X77.987 Y64.552
G1 F1800 X77.906 Y64.471 E6.12624
G0 F3600 X79.071 Y62.21
G0 X81.854 Y59.934
G1 F1800 X81.779 Y59.858 E6.12857
G0 F3600 X82.531 Y59.903
G1 F1800 X82.621 Y59.993 E6.13135
G0 F3600 X83.553 Y60.218
G1 F1800 X83.691 Y60.357 E6.13562
G0 F3600 X81.19 Y60.678
G0 X79.628 Y61.512
G0 X78.721 Y63.032
G0 X78.732 Y64.803
G0 X86.595 Y83.06
G1 F1800 X86.786 Y83.25 E6.1415
G0 F3600 X87.285 Y84.456
G1 F1800 X87.481 Y84.652 E6.14755
G0 F3600 X88.027 Y85.905
G1 F1800 X88.275 Y86.154 E6.15522
G0 F3600 X88.898 Y87.484
G1 F1800 X89.13 Y87.716 E6.16239
G0 F3600 X89.84 Y89.133
G1 F1800 X90.029 Y89.322 E6.16822
G0 F3600 X90.868 Y90.868
G1 F1800 X91.066 Y91.066 E6.17433
G1 F1500 E-0.32567
;MESH:left_clip.stl
G0 F3600 X90.732 Y89.148
G0 X103.268 Y81.994
G0 X111.848 Y66.249
G0 X111.271 Y63.519
G0 X111.543 Y61.77
G0 X112.681 Y60.413
G0 X114.355 Y59.844
G0 X116.082 Y60.225
G0 X117.363 Y61.447
G0 X117.829 Y63.156
G0 X117.601 Y64.272
G0 X112.064 Y75.561
G0 X112.013 Y75.465
;TYPE:WALL-OUTER
G1 F1500 E6.17433
G1 F1800 X112.764 Y73.547 E6.22379
G1 X113.399 Y71.831 E6.26772
G1 X113.702 Y70.977 E6.28947
G1 X113.972 Y70.195 E6.30934
G1 X114.576 Y68.369 E6.35551
G1 X114.728 Y67.926 E6.36676
G1 X114.92 Y67.507 E6.37783
G1 X115.149 Y67.111 E6.38881
G1 X115.407 Y66.749 E6.39948
G1 X115.714 Y66.397 E6.4107
G1 X116.051 Y66.078 E6.42184
G1 X116.751 Y65.521 E6.44332
G1 X117.054 Y65.2 E6.45391
G1 X117.31 Y64.839 E6.46454
G1 X117.515 Y64.445 E6.4752
G1 X117.664 Y64.03 E6.48579
G1 X117.756 Y63.596 E6.49644
G1 X117.789 Y63.156 E6.50704
G1 X117.761 Y62.714 E6.51767
G1 X117.675 Y62.279 E6.52832
G1 X117.53 Y61.861 E6.53894
G1 X117.329 Y61.467 E6.54956
G1 X117.078 Y61.103 E6.56017
G1 X116.779 Y60.777 E6.57079
G1 X116.439 Y60.494 E6.58142
G1 X116.064 Y60.26 E6.59203
G1 X115.661 Y60.079 E6.60264
G1 X115.236 Y59.954 E6.61327
G1 X114.799 Y59.888 E6.62388
G1 X114.357 Y59.883 E6.6345
G1 X113.918 Y59.938 E6.64512
G1 X113.491 Y60.052 E6.65573
G1 X113.084 Y60.222 E6.66632
G1 X112.703 Y60.446 E6.67693
G1 X112.356 Y60.72 E6.68755
G1 X112.05 Y61.039 E6.69816
G1 X111.789 Y61.396 E6.70878
G1 X111.579 Y61.786 E6.71941
G1 X111.424 Y62.2 E6.73003
G1 X111.326 Y62.633 E6.74069
G1 X111.288 Y63.073 E6.75129
G1 X111.31 Y63.515 E6.76191
G1 X111.392 Y63.953 E6.77261
G1 X111.623 Y64.614 E6.78943
G1 X111.776 Y65.159 E6.80302
G1 X111.861 Y65.694 E6.81602
G1 X111.887 Y66.249 E6.82936
G1 X111.845 Y66.809 E6.84285
G1 X111.735 Y67.375 E6.85669
G1 X111.57 Y67.906 E6.87004
G1 X111.355 Y68.562 E6.88661
G1 X110.92 Y69.848 E6.91921
G1 X110.735 Y70.376 E6.93264
G1 X110.44 Y71.195 E6.95354
G1 X109.79 Y72.916 E6.99771
G1 X109.555 Y73.518 E7.01323
G1 X109.067 Y74.734 E7.04469
G1 X108.561 Y75.946 E7.07622
G1 X108.143 Y76.911 E7.10147
G1 X107.58 Y78.17 E7.13458
G1 X106.999 Y79.424 E7.16777
G1 X106.405 Y80.661 E7.20071
G1 X106.176 Y81.108 E7.21277
G1 X105.953 Y81.392 E7.22144
G1 X105.677 Y81.626 E7.23013
G1 X105.365 Y81.796 E7.23866
G1 X104.559 Y82.048 E7.25894
G1 X104.504 Y82.065 E7.26032
G1 X104.421 Y82.077 E7.26233
G1 X104.353 Y82.067 E7.26398
G1 X104.284 Y82.034 E7.26582
G1 X104.233 Y81.988 E7.26747
G1 X104.193 Y81.923 E7.2693
G1 X104.178 Y81.863 E7.27078
G1 X104.19 Y81.742 E7.2737
G1 X104.215 Y81.691 E7.27507
G1 X104.799 Y80.525 E7.30638
G1 X105.441 Y79.21 E7.34151
G1 X106.251 Y77.47 E7.38759
G1 X106.489 Y76.943 E7.40148
G1 X107.057 Y75.648 E7.43543
G1 X107.331 Y75.002 E7.45228
G1 X107.657 Y74.214 E7.47275
G1 X108.131 Y73.037 E7.50322
G1 X108.363 Y72.446 E7.51846
G1 X108.806 Y71.278 E7.54845
G1 X109.489 Y69.384 E7.59679
G1 X109.672 Y68.804 E7.6114
G1 X109.82 Y68.211 E7.62607
G1 X109.935 Y67.61 E7.64076
G1 X110.006 Y67.077 E7.65367
